swiss/communes/0336.svg

<?xml version="1.0" encoding="UTF-8" standalone="no"?>
<svg
   xmlns:i="http://ns.adobe.com/AdobeIllustrator/10.0/"
   xmlns:dc="http://purl.org/dc/elements/1.1/"
   xmlns:cc="http://web.resource.org/cc/"
   xmlns:rdf="http://www.w3.org/1999/02/22-rdf-syntax-ns#"
   xmlns:svg="http://www.w3.org/2000/svg"
   xmlns="http://www.w3.org/2000/svg"
   xmlns:xlink="http://www.w3.org/1999/xlink"
   xmlns:sodipodi="http://sodipodi.sourceforge.net/DTD/sodipodi-0.dtd"
   xmlns:inkscape="http://www.inkscape.org/namespaces/inkscape"
   height="763"
   width="603"
   version="1.0"
   id="svg20"
   sodipodi:version="0.32"
   inkscape:version="0.44.1"
   sodipodi:docname="Reisiswil-coat of arms.svg"
   sodipodi:docbase="F:\Mis Documentos\Mis imágenes\Encyclopédie\Escudos de Suiza">
  <metadata
     id="metadata31">
    <rdf:RDF>
      <cc:Work
         rdf:about="">
        <dc:format>image/svg+xml</dc:format>
        <dc:type
           rdf:resource="http://purl.org/dc/dcmitype/StillImage" />
        <dc:date>07-AUG-2006</dc:date>
        <dc:creator>
          <cc:Agent>
            <dc:title>Jérôme BLUM (wagner51)</dc:title>
          </cc:Agent>
        </dc:creator>
        <cc:license
           rdf:resource="http://creativecommons.org/licenses/GPL/2.0/" />
        <dc:coverage />
        <dc:description>Gabarit pour le Projet:Blasons de WIkipédia</dc:description>
        <dc:subject>
          <rdf:Bag>
            <rdf:li>blason suisse modèle gabarit projet blasons</rdf:li>
          </rdf:Bag>
        </dc:subject>
        <dc:language>fr</dc:language>
        <dc:title>Gabrit d'un blason suisse</dc:title>
      </cc:Work>
      <cc:License
         rdf:about="http://creativecommons.org/licenses/GPL/2.0/">
        <cc:permits
           rdf:resource="http://web.resource.org/cc/Reproduction" />
        <cc:permits
           rdf:resource="http://web.resource.org/cc/Distribution" />
        <cc:requires
           rdf:resource="http://web.resource.org/cc/Notice" />
        <cc:permits
           rdf:resource="http://web.resource.org/cc/DerivativeWorks" />
        <cc:requires
           rdf:resource="http://web.resource.org/cc/ShareAlike" />
        <cc:requires
           rdf:resource="http://web.resource.org/cc/SourceCode" />
      </cc:License>
    </rdf:RDF>
  </metadata>
  <defs
     id="defs29">
    <linearGradient
       id="linearGradient2893">
      <stop
         style="stop-color:#ffffff;stop-opacity:0.3137255;"
         offset="0"
         id="stop2895" />
      <stop
         id="stop2897"
         offset="0.19"
         style="stop-color:#ffffff;stop-opacity:0.25098041;" />
      <stop
         style="stop-color:#6b6b6b;stop-opacity:0.1254902;"
         offset="0.60000002"
         id="stop2901" />
      <stop
         style="stop-color:#000000;stop-opacity:0.1254902;"
         offset="1"
         id="stop2899" />
    </linearGradient>
    <linearGradient
       id="linearGradient2955">
      <stop
         style="stop-color:white;stop-opacity:0;"
         offset="0"
         id="stop2965" />
      <stop
         style="stop-color:black;stop-opacity:0.64583331;"
         offset="1"
         id="stop2959" />
    </linearGradient>
    <radialGradient
       inkscape:collect="always"
       xlink:href="#linearGradient2893"
       id="radialGradient3236"
       gradientUnits="userSpaceOnUse"
       gradientTransform="matrix(1.215027,1.531577e-24,1.464684e-23,1.266667,-839.1924,-490.4894)"
       cx="858.04236"
       cy="579.93323"
       fx="858.04236"
       fy="579.93323"
       r="300" />
  </defs>
  <sodipodi:namedview
     inkscape:window-height="682"
     inkscape:window-width="1024"
     inkscape:pageshadow="2"
     inkscape:pageopacity="0.0"
     guidetolerance="10.0"
     gridtolerance="10.0"
     objecttolerance="10.0"
     borderopacity="1.0"
     bordercolor="#666666"
     pagecolor="#ffffff"
     id="base"
     inkscape:zoom="0.47447388"
     inkscape:cx="711.17379"
     inkscape:cy="267.30636"
     inkscape:window-x="-4"
     inkscape:window-y="-4"
     inkscape:current-layer="layer2"
     showgrid="true"
     showguides="true"
     inkscape:guide-bbox="true" />
  <desc
     id="desc22">Coat of Arms of Canton of Freiburg (Fribourg)</desc>
  <g
     inkscape:groupmode="layer"
     id="layer1"
     inkscape:label="Fond écu"
     sodipodi:insensitive="true">
    <path
       id="path1899"
       d="M 1.5,1.49998 L 1.5,460.3679 C 1.5,626.6785 135.81456,761.5 301.49999,761.5 C 467.18543,761.5 601.5,626.6785 601.5,460.3679 L 601.5,1.49998 L 1.5,1.49998 z "
       style="fill:white;fill-opacity:1" />
  </g>
  <g
     inkscape:groupmode="layer"
     id="layer2"
     inkscape:label="Meubles"
     sodipodi:insensitive="true">
    <g
       style="display:inline"
       id="g16309"
       transform="translate(-8.8e-2,0.285196)">
      <path
         sodipodi:nodetypes="csscsssccccsc"
         id="path16311"
         d="M 295.4375,499.21492 C 242.42299,500.24432 202.69011,520.33057 198.71875,554.21875 C 198.71875,554.21876 121.45623,508.57707 58.3125,575.21875 C 49.204271,584.83152 42.701396,594.85014 38.375,605.0625 C 86.790602,693.58496 178.21963,755.02133 284.4375,761 C 284.47903,761.00234 284.52097,760.99768 284.5625,761 C 289.68792,761.13766 294.80655,761.1875 299.96875,761.1875 C 307.27592,761.18748 314.57403,761.05171 321.8125,760.78125 C 425.37971,753.83077 514.53024,694.14339 562.875,608.21875 C 558.59491,596.91072 551.73763,585.82563 541.6875,575.21875 C 478.548,508.57701 401.25,554.21875 401.25,554.21875 C 396.09022,525.18869 357.09107,500.43029 300.65625,499.24617 C 298.89266,499.20917 297.14765,499.18171 295.4375,499.21492 z "
         style="fill:#5ab532;fill-opacity:1;stroke:black;stroke-width:3;stroke-miterlimit:4;stroke-dasharray:none;stroke-opacity:1" />
      <path
         id="path16313"
         d="M 302.12078,761.18682 C 297.22941,760.78669 417.57875,690.55769 402.1587,553.45937"
         i:knockout="Off"
         style="fill:none;stroke:black;stroke-width:3;stroke-linecap:round;stroke-linejoin:round;stroke-miterlimit:4;stroke-dasharray:none"
         sodipodi:nodetypes="cc" />
      <path
         id="path16315"
         d="M 296.8843,761.18682 C 297.1953,762.89953 183.83721,672.67498 197.78063,557.85118"
         i:knockout="Off"
         style="fill:none;stroke:black;stroke-width:3;stroke-linecap:round;stroke-linejoin:round;stroke-miterlimit:4;stroke-dasharray:none"
         sodipodi:nodetypes="cs" />
    </g>
    <g
       id="g27003"
       transform="matrix(4.035077,0,0,4.035077,-2544.882,-2315.656)">
      <path
         sodipodi:nodetypes="cccss"
         id="path17245"
         d="M 710.3578,701.57795 C 712.60772,681.69578 722.52397,613.32767 722.52397,613.32767 L 688.74771,623.71559 C 688.74771,623.71559 694.29925,678.96731 695.89449,700.67433 C 696.17927,704.54945 709.87502,705.84419 710.3578,701.57795 z "
         style="fill:black;fill-opacity:1;fill-rule:evenodd;stroke:black;stroke-width:1px;stroke-linecap:butt;stroke-linejoin:miter;stroke-opacity:1" />
      <path
         sodipodi:nodetypes="cscccccccccccccccccccccccccccccccscccccc"
         id="path21683"
         d="M 719.1145,635.723 C 726.21365,638.90927 728.9838,645.12515 734.08172,647.97456 C 759.52753,662.19709 761.24944,631.43426 774.30099,628.6325 C 761.51603,621.42176 756.33039,628.26977 750,633 C 765.52666,620.63962 749.55459,602.32263 764.42749,594.265 C 750.69025,592.20141 746.73392,599.2201 742.1505,605.6565 C 743.27962,618.1261 746.91621,639.26285 725.6325,631.8615 C 746.84447,639.28487 743.36983,618.14728 742.1505,605.6565 C 740.7376,597.90093 737.35105,590.4414 742.277,581.735 C 732.06752,584.10282 729.16036,592.69112 727.976,602.747 C 729.3089,610.10792 727.8768,614.88815 726.771,618 C 727.9192,614.92007 729.27402,610.06258 727.976,602.747 C 725.98609,595.42391 721.98474,588.35224 725,580.4035 C 720.65269,582.55967 717.83099,587.09492 714.494,591.6085 C 705.7065,604.7898 716.12364,613.66431 720.8855,623.3795 C 716.05388,613.55436 705.71482,604.71897 714.494,591.6085 C 715.12576,584.68352 711.93303,579.49694 701.45801,577.6205 C 706.24536,582.70483 704.70021,587.91567 701.1385,593.6325 C 698.46077,597.99157 693.59985,601.31649 696.8975,608.506 C 693.56777,601.39031 698.35717,598.00809 701.1385,593.6325 C 699.33955,587.08501 696.15458,581.42457 686.012,580.217 C 692.23979,588.16406 685.31975,593.22902 682.6565,599.20501 C 675.75697,618.40816 696.33458,613.589 706.8375,616.8615 C 696.40942,613.59341 675.79632,618.35176 682.6565,599.20501 C 679.36424,592.82714 678.14581,585.90352 668.8615,581.1025 C 673.78432,591.42499 667.98642,596.66552 665.8855,603.8855 C 657.1507,627.07449 683.97876,628.84475 688.8615,626.229 C 684.00638,628.74781 657.3109,627.05276 665.8855,603.8855 C 662.00887,592.66812 645,593 645,593 C 656.46011,600.47678 646.55844,614.14371 652.3435,625.723 C 659.11016,635.12593 668.25653,635.75543 675.6325,632.494 C 668.27883,635.76903 659.0227,635.09653 652.3435,625.723 C 646.21635,622.67613 642.60308,624.13257 636.518,627.494 C 649.70801,635.72475 649.58141,652.31664 664.11924,651.51522 C 673.2738,651.00612 681.15512,637.64636 689.8735,636.036 L 688.8615,626.229 C 698.45679,625.79184 702.09531,630.98341 701.3915,639.6445 C 710.94734,635.98443 721.35884,627.32579 706.8375,616.8615 C 712.25878,618.47372 716.95773,620.37376 720.8855,623.3795 L 719.1145,635.723 z "
         style="fill:#e20909;fill-opacity:1;fill-rule:evenodd;stroke:black;stroke-width:1px;stroke-linecap:butt;stroke-linejoin:miter;stroke-opacity:1" />
      <path
         sodipodi:nodetypes="ccccc"
         id="path18132"
         d="M 709.8211,636.38992 L 705.1789,700.32567 L 707.49543,700.14677 L 712.67433,636.56882 L 709.8211,636.38992 z "
         style="fill:white;fill-opacity:1;fill-rule:evenodd;stroke:white;stroke-width:1px;stroke-linecap:butt;stroke-linejoin:miter;stroke-opacity:1" />
      <path
         sodipodi:nodetypes="ccccc"
         id="path19019"
         d="M 695,631.56882 L 698.38992,632.46331 L 701.25228,700.67433 L 698.92661,699.78898 L 695,631.56882 z "
         style="fill:white;fill-opacity:1;fill-rule:evenodd;stroke:white;stroke-width:1px;stroke-linecap:butt;stroke-linejoin:miter;stroke-opacity:1" />
      <path
         sodipodi:nodetypes="ccc"
         id="path19906"
         d="M 714.14246,681.2258 C 727.00826,670.98039 696.06861,672.46929 692.32567,665.86236 C 681.66208,676.43719 712.5711,672.50551 714.14246,681.2258 z "
         style="fill:black;fill-opacity:1;fill-rule:evenodd;stroke:white;stroke-width:1px;stroke-linecap:butt;stroke-linejoin:miter;stroke-opacity:1" />
      <path
         sodipodi:nodetypes="ccc"
         id="path20794"
         d="M 716.99743,658 C 727.41316,641.91843 695.08361,651.05475 689.43375,639.97527 C 675.8505,653.03064 715.00263,647.99843 716.99743,658 z "
         style="fill:black;fill-opacity:1;fill-rule:evenodd;stroke:white;stroke-width:1px;stroke-linecap:butt;stroke-linejoin:miter;stroke-opacity:1" />
    </g>
  </g>
  <g
     inkscape:groupmode="layer"
     id="layer3"
     inkscape:label="Reflet final"
     style="display:inline"
     sodipodi:insensitive="true">
    <path
       style="fill:url(#radialGradient3236);fill-opacity:1"
       d="M 1.5,1.5 L 1.5,460.3679 C 1.5,626.67854 135.81454,761.5 301.49993,761.5 C 467.1854,761.5 601.5,626.67854 601.5,460.3679 L 601.5,1.5 L 1.5,1.5 z "
       id="path2346" />
  </g>
  <g
     inkscape:groupmode="layer"
     id="layer4"
     inkscape:label="Contour final"
     style="display:inline"
     sodipodi:insensitive="true">
    <path
       style="fill:none;fill-opacity:1;stroke:#000000;stroke-width:3;stroke-miterlimit:4;stroke-dasharray:none;stroke-opacity:1"
       d="M 1.5,1.5 L 1.5,460.36794 C 1.5,626.67854 135.81454,761.5 301.49993,761.5 C 467.1854,761.5 601.5,626.67854 601.5,460.36794 L 601.5,1.5 L 1.5,1.5 z "
       id="path3239" />
  </g>
</svg>

<svg xmlns="http://www.w3.org/2000/svg" xmlns:xlink="http://www.w3.org/1999/xlink" height="763" width="603" version="1.0"><defs><radialGradient xlink:href="#a" id="b" gradientUnits="userSpaceOnUse" gradientTransform="matrix(1.21503 0 0 1.26667 -839.192 -490.49)" cx="858.042" cy="579.933" fx="858.042" fy="579.933" r="300"/><linearGradient id="a"><stop style="stop-color:#fff;stop-opacity:.3137255" offset="0"/><stop offset=".19" style="stop-color:#fff;stop-opacity:.25098041"/><stop style="stop-color:#6b6b6b;stop-opacity:.1254902" offset=".6"/><stop style="stop-color:#000;stop-opacity:.1254902" offset="1"/></linearGradient></defs><path d="M1.5 1.5v458.868c0 166.31 134.315 301.132 300 301.132s300-134.822 300-301.132V1.5H1.5z" style="fill:#fff;fill-opacity:1"/><g style="display:inline"><path d="M295.438 499.215c-53.015 1.03-92.748 21.116-96.72 55.004 0 0-77.262-45.642-140.405 21-9.109 9.613-15.612 19.631-19.938 29.843C86.791 693.586 178.22 755.023 284.438 761c.041.002.083-.002.125 0a573.02 573.02 0 0 0 15.406.188c7.307 0 14.605-.136 21.844-.407 103.567-6.95 192.717-66.638 241.062-152.562-4.28-11.308-11.137-22.393-21.188-33-63.139-66.642-140.437-21-140.437-21-5.16-29.03-44.159-53.789-100.594-54.973-1.763-.037-3.508-.064-5.219-.031z" style="fill:#5ab532;fill-opacity:1;stroke:#000;stroke-width:3;stroke-miterlimit:4;stroke-dasharray:none;stroke-opacity:1" transform="translate(-.088 .285)"/><path d="M302.12 761.187c-4.89-.4 115.459-70.63 100.039-207.728M296.884 761.187c.311 1.713-113.047-88.512-99.103-203.336" style="fill:none;stroke:#000;stroke-width:3;stroke-linecap:round;stroke-linejoin:round;stroke-miterlimit:4;stroke-dasharray:none" transform="translate(-.088 .285)"/></g><path d="M710.358 701.578c2.25-19.882 12.166-88.25 12.166-88.25l-33.776 10.388s5.551 55.251 7.146 76.958c.285 3.875 13.981 5.17 14.464.904z" style="fill:#000;fill-opacity:1;fill-rule:evenodd;stroke:#000;stroke-width:1px;stroke-linecap:butt;stroke-linejoin:miter;stroke-opacity:1" transform="matrix(4.03508 0 0 4.03508 -2544.882 -2315.656)"/><path d="M719.115 635.723c7.099 3.186 9.869 9.402 14.967 12.252 25.446 14.222 27.167-16.54 40.219-19.342-12.785-7.211-17.97-.363-24.301 4.367 15.527-12.36-.445-30.677 14.427-38.735-13.737-2.064-17.693 4.955-22.277 11.392 1.13 12.47 4.766 33.606-16.517 26.204 21.211 7.424 17.737-13.714 16.517-26.204-1.412-7.756-4.799-15.216.127-23.922-10.21 2.368-13.117 10.956-14.301 21.012 1.333 7.36-.1 12.141-1.205 15.253 1.148-3.08 2.503-7.937 1.205-15.253-1.99-7.323-5.991-14.395-2.976-22.343-4.347 2.156-7.169 6.69-10.506 11.205-8.788 13.18 1.63 22.055 6.391 31.77-4.831-9.825-15.17-18.66-6.391-31.77.632-6.925-2.561-12.112-13.036-13.989 4.787 5.085 3.242 10.296-.32 16.013-2.677 4.359-7.538 7.683-4.24 14.873-3.33-7.116 1.46-10.498 4.24-14.873-1.798-6.548-4.983-12.208-15.126-13.416 6.228 7.947-.692 13.012-3.355 18.988-6.9 19.203 13.678 14.384 24.18 17.656-10.428-3.268-31.04 1.49-24.18-17.656-3.293-6.378-4.511-13.301-13.796-18.103 4.923 10.323-.875 15.564-2.976 22.784-8.734 23.188 18.094 24.959 22.976 22.343-4.855 2.519-31.55.824-22.976-22.344C662.01 592.668 645 593 645 593c11.46 7.477 1.558 21.144 7.343 32.723 6.767 9.403 15.914 10.032 23.29 6.771-7.354 3.275-16.61 2.603-23.29-6.771-6.127-3.047-9.74-1.59-15.825 1.771 13.19 8.23 13.063 24.823 27.601 24.021 9.155-.509 17.036-13.869 25.755-15.479l-1.013-9.807c9.596-.437 13.234 4.754 12.53 13.415 9.556-3.66 19.968-12.318 5.447-22.783 5.42 1.613 10.12 3.513 14.048 6.519l-1.771 12.343z" style="fill:#e20909;fill-opacity:1;fill-rule:evenodd;stroke:#000;stroke-width:1px;stroke-linecap:butt;stroke-linejoin:miter;stroke-opacity:1" transform="matrix(4.03508 0 0 4.03508 -2544.882 -2315.656)"/><path d="m709.821 636.39-4.642 63.936 2.316-.18 5.18-63.577-2.854-.18zM695 631.569l3.39.894 2.862 68.211-2.325-.885-3.927-68.22z" style="fill:#fff;fill-opacity:1;fill-rule:evenodd;stroke:#fff;stroke-width:1px;stroke-linecap:butt;stroke-linejoin:miter;stroke-opacity:1" transform="matrix(4.03508 0 0 4.03508 -2544.882 -2315.656)"/><path d="M714.142 681.226c12.866-10.246-18.073-8.757-21.816-15.364-10.664 10.575 20.245 6.644 21.816 15.364zM716.997 658c10.416-16.082-21.913-6.945-27.563-18.025-13.583 13.056 25.569 8.023 27.563 18.025z" style="fill:#000;fill-opacity:1;fill-rule:evenodd;stroke:#fff;stroke-width:1px;stroke-linecap:butt;stroke-linejoin:miter;stroke-opacity:1" transform="matrix(4.03508 0 0 4.03508 -2544.882 -2315.656)"/><g style="display:inline"><path style="fill:url(#b);fill-opacity:1" d="M1.5 1.5v458.868c0 166.31 134.315 301.132 300 301.132s300-134.821 300-301.132V1.5H1.5z"/></g><g style="display:inline"><path style="fill:none;fill-opacity:1;stroke:#000;stroke-width:3;stroke-miterlimit:4;stroke-dasharray:none;stroke-opacity:1" d="M1.5 1.5v458.868c0 166.31 134.315 301.132 300 301.132s300-134.821 300-301.132V1.5H1.5z"/></g></svg>
